public/icons/technologies/react-router-dom.svg

<?xml version="1.0" encoding="UTF-8"?>
<!-- Uploaded to: SVG Repo, www.svgrepo.com, Generator: SVG Repo Mixer Tools -->
<svg width="800px" height="800px" viewBox="0 -58 256 256" version="1.1" xmlns="http://www.w3.org/2000/svg" xmlns:xlink="http://www.w3.org/1999/xlink" preserveAspectRatio="xMidYMid">
	<g>
		<path d="M78.0659341,92.5875806 C90.8837956,92.5875806 101.274726,82.1966508 101.274726,69.3787894 C101.274726,56.5609279 90.8837956,46.1699982 78.0659341,46.1699982 C65.2480726,46.1699982 54.8571429,56.5609279 54.8571429,69.3787894 C54.8571429,82.1966508 65.2480726,92.5875806 78.0659341,92.5875806 Z M23.2087913,139.005163 C36.0266526,139.005163 46.4175825,128.614233 46.4175825,115.796372 C46.4175825,102.97851 36.0266526,92.5875806 23.2087913,92.5875806 C10.3909298,92.5875806 0,102.97851 0,115.796372 C0,128.614233 10.3909298,139.005163 23.2087913,139.005163 Z M232.791209,139.005163 C245.60907,139.005163 256,128.614233 256,115.796372 C256,102.97851 245.60907,92.5875806 232.791209,92.5875806 C219.973347,92.5875806 209.582418,102.97851 209.582418,115.796372 C209.582418,128.614233 219.973347,139.005163 232.791209,139.005163 Z" fill="#000000">
</path>
		<path d="M156.565464,70.3568084 C155.823426,62.6028163 155.445577,56.1490255 149.505494,51.6131676 C141.982638,45.8687002 133.461166,49.5960243 122.964463,45.8072968 C112.650326,43.3121427 105,34.1545727 105,23.2394367 C105,10.4046502 115.577888,0 128.626373,0 C138.29063,0 146.599638,5.70747659 150.259573,13.8825477 C155.861013,24.5221258 152.220489,35.3500418 159.258242,40.8041273 C167.591489,47.2621895 178.826167,42.5329154 191.362109,48.6517412 C195.390112,50.5026944 198.799584,53.4384578 201.202056,57.0769224 C203.604528,60.7153869 205,65.0565524 205,69.7183101 C205,80.633446 197.349674,89.7910161 187.035538,92.2861702 C176.538834,96.0748977 168.017363,92.3475736 160.494506,98.092041 C152.03503,104.551712 156.563892,115.358642 149.669352,126.774447 C145.756163,134.291567 137.802119,139.43662 128.626373,139.43662 C115.577888,139.43662 105,129.03197 105,116.197184 C105,106.873668 110.581887,98.832521 118.637891,95.1306146 C131.173833,89.0117889 142.408511,93.7410629 150.741758,87.2830007 C155.549106,83.5574243 156.565464,77.8102648 156.565464,70.3568084 Z" fill="#D0021B">
</path>
	</g>
</svg>

<svg width="800" height="800" viewBox="0 -58 256 256" xmlns="http://www.w3.org/2000/svg" preserveAspectRatio="xMidYMid"><path d="M78.066 92.588c12.818 0 23.209-10.391 23.209-23.21 0-12.817-10.391-23.208-23.21-23.208-12.817 0-23.208 10.39-23.208 23.209 0 12.818 10.391 23.209 23.209 23.209zm-54.857 46.417c12.818 0 23.209-10.39 23.209-23.209 0-12.817-10.391-23.208-23.21-23.208C10.392 92.588 0 102.978 0 115.796c0 12.818 10.39 23.21 23.209 23.21zm209.582 0c12.818 0 23.209-10.39 23.209-23.209 0-12.817-10.39-23.208-23.209-23.208-12.818 0-23.209 10.39-23.209 23.208 0 12.818 10.391 23.21 23.21 23.21z"/><path d="M156.565 70.357c-.742-7.754-1.12-14.208-7.06-18.744-7.522-5.744-16.044-2.017-26.54-5.806C112.65 43.312 105 34.155 105 23.24 105 10.405 115.578 0 128.626 0c9.665 0 17.974 5.707 21.634 13.883 5.601 10.64 1.96 21.467 8.998 26.921 8.333 6.458 19.568 1.729 32.104 7.848a23.614 23.614 0 0 1 9.84 8.425A22.858 22.858 0 0 1 205 69.718c0 10.915-7.65 20.073-17.964 22.568-10.497 3.789-19.019.062-26.541 5.806-8.46 6.46-3.931 17.267-10.826 28.682-3.913 7.518-11.867 12.663-21.043 12.663-13.048 0-23.626-10.405-23.626-23.24 0-9.323 5.582-17.364 13.638-21.066 12.536-6.12 23.77-1.39 32.104-7.848 4.807-3.726 5.823-9.473 5.823-16.926z" fill="#D0021B"/></svg>
